X:151
T:Muriel's Waltz
T:(goes with Sourgrass & Granite and Waiting for Emily)
M:3/4
L:1/8
K:D
DE|:"Bm"FB B2 Bc|"D"de dc BA|"G"GA Bc df|g2 gf ed|"A"ca a3 c|
[1"G"Bg g2 a2|"D"f2 fe df|"A"ed cB AG:|[2"G"Bg g2 a2|"Bm"b2 bf dc|"Em"B4 A2|
|:"D"f2 fe dc|"G-D"~B2 AF FE|"D"Dd d2 c2|"G"B2 BA GA|"Bm"FB Bc dB|"G"GB Bc de|
[1"D"f2 fe df|"A"e3 A de:|[2"D"f2 fe "A"dc|"D"d4 ||
